Yaru++/actions/16/system-log-out.svg

<svg height="16" viewBox="0 0 16 16" width="16" xmlns="http://www.w3.org/2000/svg"><path d="m8 0c4.418 0 8 3.582 8 8s-3.582 8-8 8-8-3.582-8-8 3.582-8 8-8zm0 1.777c-3.436 0-6.223 2.787-6.223 6.223s2.787 6.223 6.223 6.223 6.223-2.787 6.223-6.223-2.787-6.223-6.223-6.223zm.549 3.556 1.762 1.369 1.794 1.298-1.792 1.298-1.764 1.369.022-1.778h-4.994l.988-1.778h4.005z" fill="#808080"/></svg>

<svg xmlns="http://www.w3.org/2000/svg" width="16" height="16" viewBox="0 0 16 16">
 <path fill="#808080" d="M 8 0 C 12.418 0 16 3.582 16 8 C 16 12.418 12.418 16 8 16 C 3.582 16 0 12.418 0 8 C 0 3.582 3.582 0 8 0 Z M 8 1.777 C 4.564 1.777 1.777 4.564 1.777 8 C 1.777 11.436 4.564 14.223 8 14.223 C 11.436 14.223 14.223 11.436 14.223 8 C 14.223 4.564 11.436 1.777 8 1.777 Z M 8.549 5.333 L 10.311 6.702 L 12.105 8 L 10.313 9.298 L 8.549 10.667 L 8.571 8.889 L 3.577 8.889 L 4.565 7.111 L 8.57 7.111 L 8.549 5.333 L 8.549 5.333 Z"/>
</svg>
